symbols/web/open_in_browser/materialsymbolsoutlined/open_in_browser_wght500_24px.svg

<svg xmlns="http://www.w3.org/2000/svg" height="24" width="24"><path d="M5.075 21.2q-.95 0-1.612-.662-.663-.663-.663-1.613V5.075q0-.95.663-1.613.662-.662 1.612-.662h13.85q.95 0 1.613.662.662.663.662 1.613v13.85q0 .95-.662 1.613-.663.662-1.613.662H15.15v-2.275h3.775V7.175H5.075v11.75H8.85V21.2Zm5.775 0v-6.05l-1.5 1.525-1.6-1.65L12 10.8l4.25 4.225-1.6 1.65-1.5-1.525v6.05Z"/></svg>

<svg xmlns="http://www.w3.org/2000/svg" height="24" width="24"><path d="M10.85 21.2V15.15L9.35 16.675L7.75 15.025L12 10.8L16.25 15.025L14.65 16.675L13.15 15.15V21.2ZM15.15 18.925H18.925Q18.925 18.925 18.925 18.925Q18.925 18.925 18.925 18.925V7.175H5.075V18.925Q5.075 18.925 5.075 18.925Q5.075 18.925 5.075 18.925H8.85V21.2H5.075Q4.125 21.2 3.463 20.538Q2.8 19.875 2.8 18.925V5.075Q2.8 4.125 3.463 3.462Q4.125 2.8 5.075 2.8H18.925Q19.875 2.8 20.538 3.462Q21.2 4.125 21.2 5.075V18.925Q21.2 19.875 20.538 20.538Q19.875 21.2 18.925 21.2H15.15Z"/></svg>
